X: 16090
T: Green Fields Of Woodford, The
R: jig
M: 6/8
K: Gmajor
d|:dBA G2E|EDE G2e|edB dBA|~B3 e/f/ge|
dBA G2E|EDE G3|AGE A3|1 GED D2d:|2 GED D2c||
|:BGG dGG|~e3 dBA|BGG dGG|edB A2d|
BAB de/f/g|age d2B|GAB AGE|1 GED D2c:|2 GED D2d||

